resources/haticons/SVG/magento.svg

<!-- Generated by IcoMoon.io -->
<svg version="1.1" xmlns="http://www.w3.org/2000/svg" width="24" height="24" viewBox="0 0 24 24">
<title>magento</title>
<path d="M12 24l-4.455-2.572v-12l2.97-1.715v12.001l1.485 0.902 1.485-0.902v-12.001l2.971 1.715v12l-4.456 2.572zM22.391 6v12l-2.969 1.714v-12.001l-7.422-4.283-7.426 4.283v12.001l-2.965-1.714v-12l10.391-6 10.391 6z"></path>
</svg>

<svg xmlns="http://www.w3.org/2000/svg" width="24" height="24"><path d="M12 24l-4.455-2.572v-12l2.97-1.715v12.001l1.485.902 1.485-.902V7.713l2.971 1.715v12L12 24zM22.391 6v12l-2.969 1.714V7.713L12 3.43 4.574 7.713v12.001L1.609 18V6L12 0l10.391 6z"/></svg>
